X: 438
P: Longways for as many as will
M: 6/4
L: 1/4
K: D
fga efg | fga efg | fga a2^g | a3- a3 |]\
a |\
fdd gee | fdd gee |
fdd g>a (g/f/) | e3- e2f/g/ |\
a2z g2z | f2z e2z | f2z g2z | f2z e2a |\
f/g/ad eAa | f/g/ad eAa | f>ed ee2 | d3- d2 |]

